X:1
T:Blessed is he that considereth - Boyce
T:#
%%score [ 1 2 ] ( 3 4 5 )
L:1/8
Q:1/4=100
M:4/4
K:C
V:1 treble-8 nm="Tenor" snm="T"
V:2 bass nm="Bass" snm="B"
V:3 bass nm="Organ"
V:4 bass 
V:5 bass 
V:1
"^Blessed is he that considereth the poor""^William Boyce\n (1711-1779)""^Psalm 41:1,2a,3,12" c4 !fermata!c4 | %1
w: Bles- sed,|
 e4 e2 (d/c/B) | c4 (c>d) e2 | e3 A A2 c2 | (c2 B4) z A | (^G>^F) E2 z2 z B | e4 e3 e | f2 e2 f4- | %8
w: Bles- sed is * *|he that * con-|si- der- eth the|poor * and|nee\- * dy: the|Lord shall de-|li- ver him|
 f4 e3 e | (e2 d4) c2 |{c} (B3 A) G4 | z2 z d e3 e | g2 e4 c2 | c4 f2 (ed) | e4 z2 d2 | e4 d3 e | %16
w: * in the|time * of|trou\- * ble.|The Lord pre-|serve him, and|keep him a\- *|live, That|he may be|
 ^f4 g4 | A6 (Bc) | B8 | z2 z B e4 | e3 ^d d4 | z4 e2 d2 | c4 B4 | A4 G4 | (G2 ^F4) E2 |{E} ^D8 | %26
w: bles- sed|up- on *|earth.|The Lord|com- fort him,|when he|li- eth|sick up-|on * his|bed:|
 B2 B2 B2 B2 | G4 G2 G2 | G2 E2 z4 | e2 e2 e2 (e/^f/g) | ^f4 f4- | f2 g2 ^f2 e2 | G4 ^F2 B2 | %33
w: make thou all his|bed in his|sick- ness,|make thou all his * *|bed, make|* thou all his|bed in his|
 G4 E4 | z8 | z8 | z8 | z8 ||[M:3/2][Q:1/4=180] B4 | c3 c c4 e3 d | e12 | e3 e e4 d3 c | %42
w: sick- ness.|||||And|when I am in my|health,|when I am in my|
[M:3/2][K:treble-8][Q:1/4=180][Q:1/4=180][Q:1/4=180] f8 e3 d | e4 e8 | d12 | c3 c c4 c3 G | %46
w: health, thou up-|hold- est|me,|when I am in my|
 A4 B4 c4 | (d4 c4) d4 | e8 e3 d | c4 c4 (B3 c) | (d6 c2) B4 | A8 (F/B/ c3) | B4 G4 z4 | %53
w: health, thou up-|hold\- * est|me: and shalt|set me be\- *|fore * thy|face for * *|e- ver.|
 B3 B e4 d3 ^c | d4 e4 f4 | e4 (d2 ^c6) | d12 | A3 A d4 c3 B | c4 d4 e4 | d4 (c4 B4) | c8 e3 d | %61
w: When I am in my|health, thou up-|hold- est *|me,|when I am in my|health, thou up-|hold- est *|me: and shalt|
 c4 c4 B4 | (A4 B4) c4 | (d3 e f4) e4 | d4 G4 (g3 e) | c4 d4 e4 | (e4 d4) c4 | (c3 d e6) z d | %68
w: set me be-|fore * thy|face * * for|e- ver, shalt *|set me be-|fore * thy|face * * for|
 (c3 B) c4 z4 | z12 | z12 | z12 | z12 ||[M:4/4]"^Chearfull"[Q:1/4=132] z4 e2 (fd) | e2 d2 c2 (dB) | %75
w: e\- * ver.|||||Hal- le\- *|lu- jah, hal- le\- *|
 c2 B2 A2 G2 | (AB) c2 d2 (ef) | e2 c2 z4 | z8 | %79
w: lu- jah, hal- le-|lu\- * jah, hal- le\- *|lu- jah.||
[M:4/4][K:treble-8][Q:1/4=132][Q:1/4=132][Q:1/4=132] z4 e2 (dB) | c2 B2 (cA) d2 | %81
w: Hal- le\- *|lu- jah, hal\- * le-|
 (Bc) d2 (e^f) g2 | c2 B2 A2 (Bc) | B2 G2 z4 | z8 | z8 | (e3 f ed) (cB) | (cB) A2 z4 | %88
w: lu\- * jah, hal\- * le-|lu- jah, hal- le\- *|lu- jah.|||Hal\- * * * le\- *|lu\- * jah,|
 (d3 e dc) (BA) | (BA) G2 g2 G2 | c2 (de) (fe) (dc) | B2 G2 (ed) (cB) | (ABcA fedc | BcdB gfed | %94
w: hal\- * * * le\- *|lu\- * jah, hal- le-|lu- jah, * hal\- * le\- *|lu- jah, hal\- * le\- *|lu\- * * * * * * *||
 c2 de f2) f2 | f2 e2 z4 | z4 c2 f2 | f2 e2 g2 G2 | c2 (de) (fe) (dc) | B2 G2 e2 c2 | %100
w: * * * * le-|lu- jah.|Hal- le-|lu- jah, hal- le-|lu- jah, * hal * le\- *|lu- jah, hal- le-|
 (AB) c2 f2 e2 | (dB) c2 f2 e2 | (dB) c2 d2 (ef) | (ed) c2 z4 | z8 | z4 g2 G2 | (c2 de fedc | %107
w: lu\- * jah, hal- le-|lu\- * jah, hal- le-|lu\- * jah, hal- le\- *|lu\- * jah,||Hal- le-|lu\- * * * * * *|
 B2) G2 e2 c2 | (AB) c2 f2 e2 | (dB) c2 f2 e2 | d4 c4 | (d4 e2) f2 | (e3 d) !fermata!c4 || %113
w: * jah, hal- le-|lu\- * jah, hal- le-|lu\- * jah, hal- le-|lu- jah,|hal\- * le-|lu\- * jah.|
"^Chorus Slow" c8 | !fermata!c8 | f8 | !fermata!e8 |] %117
w: A-|men,|A-|men.|
V:2
 A,4 !fermata!A,4 | C4 A,2 ^G,2 | A,4 A,2 G,2 | F,3 F, F,2 E,2 | ^D,6 z D, | E,2 E,2 z4 | %6
w: Bles- sed,|Bles- sed is|he that con-|si- der- eth the|poor and|nee- dy:|
 z4 z2 z E, | A,4 A,3 B, | C2 B,2 C4 | F,3 F, ^F,2 F,2 | G,4 G,,4 | z2 z G, C3 C | E2 C4 A,2 | %13
w: the|Lord shall de-|li- ver him|in the time of|trou- ble.|The Lord pre-|serve him, and|
 F,4 D,2 G,2 | C,4 z2 G,2 | C4 B,3 C | A,4 G,4 | D,6 D,2 | G,,8 | z2 z G,, G,4 | G,3 ^F, F,4 | %21
w: keep him a-|live, That|he may be|bles- sed|up- on|earth.|The Lord|com- fort him,|
 z4 G,2 ^F,2 | E,4 D,4 | C,4 B,,4 | A,,4 B,,2 C,2 | B,,8 | z8 | E,2 E,2 E,2 E,2 | C,4 C,2 C,2 | %29
w: when he|li- eth|sick up-|on * his|bed:||make thou all his|bed in his|
 C,2 A,,2 z4 | A,2 A,2 A,2 (A,/B,/C) | B,2 E,2 A,,2 C,2 | B,,4 B,,3 B,, | E,4 E,4 | z8 | z8 | z8 | %37
w: sick- ness.|make thou all his * *|bed, all, all his|bed in his|sick- ness.||||
 z8 ||[M:3/2] E,4 | A,3 A, A,4 C3 B, | C12 | C3 C C4 B,3 A, |[M:3/2] D8 C3 B, | C4 C,8 | G,12 | %45
w: |And|when I am in my|health,|when I am in my|health, thou up-|hold- est|me,|
 E,3 E, E,4 E,3 C, | F,4 G,4 A,4 | (F,4 E,4) G,4 | C,8 C3 B, | A,4 A,4 G,4 | ^F,8 G,4 | D,8 D,4 | %52
w: when I am in my|health, thou up-|hold\- * est|me: and shalt|set me be-|fore thy|face for|
 G,4 G,,4 z4 | G,3 G, G,4 A,3 G, | F,4 A,4 D4 | G,4 A,8 | D,12 | F,3 F, F,4 G,3 F, | E,4 G,4 C4 | %59
w: e- ver.|When I am in my|health, thou up-|hold- *|est|me, when I am in|health, thou up-|
 F,4 G,8 | C,8 C3 B, | A,4 A,4 G,4 | F,8 E,4 | (D,3 C, B,,4) C,4 | G,4 G,4 E,4 | A,4 B,4 C4 | %66
w: hold- est|me: and shalt|set me be-|fore thy|face * * for|e- ver, shalt|set me be-|
 F,8 (E,3 F,) | G,8 G,,4 | C,4 C,4 z4 | z12 | z12 | z12 | z12 ||[M:4/4] z4 C2 (DB,) | %74
w: fore thy *|face for|e- ver.|||||Hal- le\- *|
 C2 B,2 A,2 (B,^G,) | A,2 G,2 F,2 E,2 | D,2 C,2 F,2 G,2 | C,2 C,2 z4 | z8 |[M:4/4] z4 C2 (B,^G,) | %80
w: lu- jah, hal- le\- *|lu- jah, hal- le-|lu- jah, hal- le-|lu- jah.||Hal- le\- *|
 A,2 =G,2 ^F,2 D,2 | (G,A,) B,2 C2 B,2 | A,2 G,2 C,2 D,2 | G,2 G,,2 z4 | z8 | z4 D2 B,2 | %86
w: lu- jah, hal- le-|lu\- * jah, hal- le-|lu- jah, hal- le-|lu- jah,||Hal- le-|
 ^G,2 E,2 ^F,2 G,2 | A,2 A,,2 C2 A,2 | ^F,2 D,2 E,2 F,2 | G,2 G,,2 (E,F,G,E, | A,G,F,E, D,E,F,D, | %91
w: lu- jah, hal- le-|lu- jah, hal- le-|lu- jah, hal- le-|lu- jah, hal\- * * *||
 G,F,E,D, C,2) E,2 | F,2 E,2 D,2 (E,F,) | G,2 F,2 E,2 (F,G,) | A,2 G,2 (F,G,) (A,B,) | C2 C,2 z4 | %96
w: * * * * * le-|lu- jah, hal- le\- *|lu- jah, hal- le\- *|lu- jah, hal\- * le\- *|lu- jah.|
 z4 (F,G,) (A,B,) | C2 C,2 (E,F,G,E, | A,G,F,E, D,E,F,D, | G,F,E,D, C,D,E,C, | F,2) E,2 D,2 C,2 | %101
w: Hal\- * le\- *|lu- jah, hal\- * * *|||* le- lu- jah,|
 F,2 E,2 (D,B,,) C,2 | G,2 A,2 (F,2 G,2) | C,4 z4 | z8 | z4 (E,F,G,E, | A,G,F,E, D,E,F,D, | %107
w: hal- le- lu\- * jah,|hal- le- lu\- *|jah.||Hal\- * * *||
 G,F,E,D, C,D,E,C, | F,2) E,2 D,2 C,2 | (F,2 E,2 D,2) C,2 | G,4 A,4 | G,6 G,,2 | %112
w: |* le- lu- jah,|hal\- * * le-|lu- jah,|hal- le-|
 C,4 !fermata!C,4 || E,8 | !fermata!F,8 | F,8 | !fermata!C,8 |] %117
w: lu- jah.|A-|men,|A-|men.|
V:3
 x8 | x8 | x8 | x8 | x8 | x8 | x8 | x8 | x8 | x8 | x8 | x8 | x8 | x8 | x8 | x8 | x8 | x8 | x8 | %19
 x8 | x8 | x8 | x8 | x8 | x8 | x8 | x8 | x8 | x8 | x8 | x8 | x8 | x8 | x8 | %34
[M:4/4][K:treble] [eg]2 [eg]2 [eg]2 [eg]2 | [eg]6 ^f/g/a | [eg]4 [e^f]2 [^db]2 | [eg]4 e4 || %38
[M:3/2] z4 | z12 | z12 | z12 |[M:3/2][K:bass] x12 | x12 | x12 | x12 | x12 | x12 | x12 | x12 | x12 | %51
 x12 | x12 | x12 | x12 | x12 | x12 | x12 | x12 | x12 | x12 | x12 | x12 | x12 | %64
[M:3/2][K:treble] z12 | z12 | z12 | z12 | z4 z4 g4- | [cg]4 [df]4 e4- | [Ae]4 [Bd]4 c4 | %71
 [Ec]3 [Fd] [Ge]6 z [Fd] | [Ec]3 [DB] [Ec]4 z4 ||[M:4/4] z8 | z8 | z8 | z8 | z4 a2 g2 | %78
 B2 c2 d2 (ef) |[M:4/4] e2 c2 z4 | z8 | z8 | z8 | z4 e^f g2 | cA B2 A2 Bc | B2 G2 z4 | %86
[M:4/4][K:bass] x8 | x8 | x8 | x8 | x8 |[M:4/4][K:treble] z8 | z8 | z8 | z8 | z4 a2 f2 | f2 e2 z4 | %97
[M:4/4][K:bass] x8 | x8 | x8 | x8 | x8 |[M:4/4][K:treble] z8 | z4 ab c'2 | f2 e2 d2 ef | e2 c2 z4 | %106
 z8 | z8 | z8 |[M:4/4][K:bass] x8 | x8 | x8 | x8 || x8 | x8 | x8 | x8 |] %117
V:4
 !fermata!A,,8 | A,,4 C,2 E,2 | A,6 G,2 | F,6 E,2 | ^D,8 | E,8 | E,8 | A,,4 A,,3 B,, | C,8 | %9
w: |* 6 3|* 6|~~7~~~6 6|~~7~~~6|3||6 * *|4~~~3|
w: |||* 4||||||
 F,,4 ^F,,4 | G,,8 | z2 z G, C3 C | E2 C4 A,2 | F,4 D,2 G,2 | C,4 z2 G,2 | C4 B,3 C | A,4 G,4 | %17
w: 7~~~6 *||||||* 6 *|+6 *|
w: ||||||||
 D,8 | G,,8 | z2 z G,, G,4 | G,3 ^F, F,4 | z4 G,2 ^F,2 | E,4 D,4 | C,4 B,,4 | A,,4 B,,2 C,2 | %25
w: 4~~~3||* 6|* +6 *|6 6|6 6|6 6|7~~~+6 * 6|
w: |||||* 3|||
 B,,8 | ^D,8 | E,8 | C,8 | A,,8 | A,6 ^F,2 | ^D,2 E,2 A,,2 C,2 | B,,8 | E,,8 | %34
w: |6||||+6 5|6 3 +6 6|6~~~5~~~~3||
w: ||||||5 * * *|4~~~4||
[M:4/4][K:treble] z8 |[I:staff +1] C2 C2 C2 A,2 | B,4 B,,4 | E,8 ||[M:3/2] E,4 | A,8 C3 B, | C12 | %41
w: |||||* * 6||
w: |||||||
 C,8 F,4 |[M:3/2][I:staff -1][K:bass] D,8 G,4 | C4 C,8 | G,12 | E,8 C,4 | F,4 G,4 A,4 | %47
w: * 6~~~~5|* 6~~~5|||6 *|* 7 5|
w: * 4+~~3|* 4~~~3|||||
 F,4 E,4 G,4 | C,8 C3 B, | A,8 G,4 | ^F,8 G,4 | D,8 D,,4 | G,,12 | G,8 A,3 G, | F,4 A,4 D4 | %55
w: 6 6 *|* * 6|7~~~+6 *|6 *|5 *||5~6 6 4+|6 * *|
w: ||||4 3||* 4 2||
 G,4 A,8 | D,12 | F,8 G,3 F, | E,4 G,4 C4 | F,4 G,8 | C,8 C3 B, | A,8 G,4 | F,8 E,4 | %63
w: 6 *||6 6 4+|6 * *|6 *|* * 6|* 6|7~~~6 6|
w: 3 *||* 4 2|||||3~~~4+ *|
 D,3 C, B,,4 C,4 |[M:3/2][K:treble][I:staff +1] G,4 G,4 E,4 | A,4 B,4 C4 | F,8 (E,3 F,) | %67
w: 6 * * *|* * 5|7 5 *|7~~~6 6 *|
w: |||~~~~~4+ * *|
 G,8 G,,4 | C,8 E,4 | A,4 B,4 C4 | F,8 E,3 F, | G,8 G,,4 | C,8[I:staff -1] z4 || %73
w: 6 5||||||
w: 4 3||||||
[M:4/4][I:staff +1] C,4 C2 (DB,) | C2 B,2 A,2 (B,^G,) | A,2 G,2 F,2 E,2 | D,2 C,2 F,2 G,2 | %77
w: * * 6 *|* 6 * 6+ *|* 6 * *|5~~~6 * 6 3|
w: |||* * 5 *|
 C,4 F,2 E,2 | D,2 C,2 F,2 G,2 |[M:4/4] C,4 C2 (B,^G,) | A,2 =G,2 ^F,2 D,2 | G,A, B,2 C2 B,2 | %82
w: ||* * 6+ *|* 6 5 *|* * 6 * 6|
w: |||||
 A,2 G,2 C,2 D,2 | G,,4 C,2 B,,2 | A,,2 G,,2 C,2 D,2 | G,,4 D2 B,2 | %86
w: 6+ * 6 *||||
w: * * 5 *||||
[M:4/4][I:staff -1][K:bass] ^G,2 E,2 ^F,2 G,2 | A,2 A,,2 C2 A,2 | ^F,2 D,2 E,2 F,2 | %89
w: 6 * * *||6 * * *|
w: |||
 G,2 G,,2 E,F,G,E, | A,G,F,E, D,E,F,D, |[M:4/4][K:treble][I:staff +1] G,F,E,D, C,2 E,2 | %92
w: ||* * * * * 6|
w: |||
 F,2 E,2 D,2 E,F, | G,2 F,2 E,2 F,G, | A,2 G,2 F,G,A,B, | C2 C,2 F,G,A,B, | C2 C,2 F,G,A,B, | %97
w: * 6 * * *|* 6 * * *|* 5~~~6 * * 6 *|4 3 * * * *|* * * * 6 *|
w: |* 4 * * *|* ~~~~~3 * * * *|||
[M:4/4][I:staff -1][K:bass] C2 C,2 E,F,G,E, | A,G,F,E, D,E,F,D, | G,F,E,D, C,D,E,C, | %100
w: 4 3 5 * * *|* * * * * * 6 *|* * * * * * 6 *|
w: |||
 F,2 E,2 D,2 C,2 | F,2 E,2 D,B,, C,2 |[M:4/4][K:treble][I:staff +1] G,2 A,2 F,2 G,2 | C,4 F,2 E,2 | %104
w: * 6 5~~~6 *|6 6 6 * *|* * 6 3||
w: ||* * 5 *||
 D,2 C,2 F,2 G,2 | C,4 E,F,G,E, | A,G,F,E, D,E,F,D, | G,F,E,D, C,D,E,C, | F,2 E,2 D,2 C,2 | %109
w: |* 5 * * *|||* 6 5~~~6 *|
w: |||||
[M:4/4][I:staff -1][K:bass] F,2 E,2 D,2 C,2 | G,4 A,4 | G,4 G,,4 | !fermata!C,8 || E,8 | %114
w: 6 6 5~~~6 *|* 5|4 3||6|
w: 3~~4 * * *|||||
 !fermata!F,8 | F,,8 | !fermata!C,8 |] %117
w: |||
w: |||
V:5
 x8 | x8 | x8 | x8 | x8 | x8 | x8 | x8 | x8 | x8 | x8 | x8 | x8 | x8 | x8 | x8 | x8 | x8 | x8 | %19
 x8 | x8 | x8 | x8 | x8 | x8 | x8 | x8 | x8 | x8 | x8 | x8 | x8 | x8 | x8 |[M:4/4][K:treble] x8 | %35
 x6 e2 | x8 | x8 ||[M:3/2] x4 | x12 | x12 | x12 |[M:3/2][K:bass] x12 | x12 | x12 | x12 | x12 | %47
 x12 | x12 | x12 | x12 | x12 | x12 | x12 | x12 | x12 | x12 | x12 | x12 | x12 | x12 | x12 | x12 | %63
 x12 |[M:3/2][K:treble] x12 | x12 | x12 | x12 | x4 x4 z2 z e | x8 z2 z c | x12 | x8 x2 x2 | x12 || %73
[M:4/4] x8 | x8 | x8 | x8 | x8 | x8 |[M:4/4] x8 | x8 | x8 | x8 | x8 | x8 | x8 |[M:4/4][K:bass] x8 | %87
 x8 | x8 | x8 | x8 |[M:4/4][K:treble] x8 | x8 | x8 | x8 | x8 | x8 |[M:4/4][K:bass] x8 | x8 | x8 | %100
 x8 | x8 |[M:4/4][K:treble] x8 | x8 | x8 | x8 | x8 | x8 | x8 |[M:4/4][K:bass] x8 | x8 | x8 | x8 || %113
 x8 | x8 | x8 | x8 |] %117

